X:1
T:Title
L:1/8
Q:1/4=100
M:4/4
K:F
V:1 treble nm="Grand Piano"
V:1
 z2 D2 D2 E2 | F3 F G2 FE | D2 F2 ED C2 | D4 D4 | z2 D2 D2 E2 | F2 FE G2 FE | D2 F2 ED C2 | D4 D4 | %8
 z2 A2 A2 B2 | c2 BA c2 BA | G3 G G2 A2 | B2 AG B2 AG | F3 F F2 GG | _A2 GF A2 GF | E3 E E2 FF | %15
 G2 A2 BB c2 | A2 A2 A2 B2 | c2 BA c2 BA | G3 G G2 A2 | B2 AG B2 AG | F3 F F2 GG | _A2 GF A2 GF | %22
 E3 E E2 FF | G2 E2 GGFE | D8 |] %25

